public/img/anti-feature-6.svg

<svg width="88" height="88" viewBox="0 0 88 88" fill="none" xmlns="http://www.w3.org/2000/svg">
<path d="M71.5747 32.8535C73.5157 32.8535 75.0947 31.2745 75.0947 29.3335C75.0947 27.3925 73.5157 25.8135 71.5747 25.8135C69.6337 25.8135 68.0547 27.3925 68.0547 29.3335C68.0547 31.2745 69.6337 32.8535 71.5747 32.8535ZM71.5747 28.1601C72.2215 28.1601 72.748 28.6861 72.748 29.3335C72.748 29.9809 72.2215 30.5068 71.5747 30.5068C70.9279 30.5068 70.4014 29.9809 70.4014 29.3335C70.4014 28.6861 70.9279 28.1601 71.5747 28.1601Z" fill="black"/>
<path d="M57.4937 18.7734C58.1417 18.7734 58.667 18.2481 58.667 17.6001C58.667 16.9521 58.1417 16.4268 57.4937 16.4268C56.8456 16.4268 56.3203 16.9521 56.3203 17.6001C56.3203 18.2481 56.8456 18.7734 57.4937 18.7734Z" fill="black"/>
<path d="M70.2579 18.9154C70.487 19.1445 70.7874 19.2592 71.0875 19.2592C71.3875 19.2592 71.6879 19.1445 71.917 18.9154L72.7466 18.0859L73.5761 18.9154C73.8052 19.1445 74.1056 19.2592 74.4056 19.2592C74.7057 19.2592 75.0061 19.1445 75.2352 18.9154C75.6934 18.4572 75.6934 17.7145 75.2352 17.2563L74.4056 16.4268L75.2352 15.5972C75.6934 15.139 75.6934 14.3963 75.2352 13.9381C74.777 13.4799 74.0343 13.4799 73.5761 13.9381L72.7466 14.7677L71.917 13.9381C71.4588 13.4799 70.7161 13.4799 70.2579 13.9381C69.7997 14.3963 69.7997 15.139 70.2579 15.5972L71.0875 16.4268L70.2579 17.2563C69.7994 17.7148 69.7994 18.4572 70.2579 18.9154Z" fill="black"/>
<path d="M61.0144 41.2419V33.1684C61.0144 30.407 58.768 28.1601 56.0066 28.1601H45.761V12.9067C45.761 12.2582 45.2357 11.7334 44.5877 11.7334H12.9077C12.2597 11.7334 11.7344 12.2582 11.7344 12.9067V44.5867C11.7344 45.2353 12.2597 45.7601 12.9077 45.7601H24.7367C25.3846 45.7601 25.91 45.2353 25.91 44.5867C25.91 43.9382 25.3846 43.4134 24.7367 43.4134H14.081V14.0801H43.4144V28.1601H33.1688C30.4074 28.1601 28.161 30.407 28.161 33.1684V56.005C28.161 58.7665 30.4074 61.0134 33.1688 61.0134H38.0003C38.6483 61.0134 39.1737 60.4886 39.1737 59.8401C39.1737 59.1915 38.6483 58.6667 38.0003 58.6667H33.1688C31.7016 58.6667 30.5077 57.4729 30.5077 56.005V33.1684C30.5077 31.7006 31.7016 30.5067 33.1688 30.5067H56.0063C57.4736 30.5067 58.6674 31.7006 58.6674 33.1684V41.0667C48.9628 41.0667 41.0674 48.9615 41.0674 58.6667C41.0674 68.372 48.9628 76.2667 58.6674 76.2667C68.3721 76.2667 76.2674 68.372 76.2674 58.6667C76.2677 49.7591 69.6108 42.395 61.0144 41.2419ZM58.6677 73.9201C50.2567 73.9201 43.4144 67.0772 43.4144 58.6667C43.4144 50.2563 50.2567 43.4134 58.6677 43.4134C67.0788 43.4134 73.921 50.2563 73.921 58.6667C73.921 67.0772 67.0788 73.9201 58.6677 73.9201Z" fill="black"/>
</svg>

<svg width="88" height="88" fill="none" xmlns="http://www.w3.org/2000/svg"><path d="M71.575 32.853a3.524 3.524 0 003.52-3.52 3.524 3.524 0 00-3.52-3.52 3.524 3.524 0 00-3.52 3.52 3.524 3.524 0 003.52 3.52zm0-4.693a1.175 1.175 0 010 2.347 1.174 1.174 0 010-2.347zm-14.081-9.387a1.173 1.173 0 100-2.346 1.173 1.173 0 000 2.346zm12.764.142a1.17 1.17 0 001.659 0l.83-.83.83.83a1.17 1.17 0 001.658 0c.458-.458.458-1.2 0-1.659l-.83-.83.83-.829a1.173 1.173 0 10-1.659-1.659l-.83.83-.829-.83a1.173 1.173 0 10-1.66 1.66l.83.829-.83.83a1.173 1.173 0 000 1.658zm-9.244 22.327v-8.074a5.014 5.014 0 00-5.007-5.008H45.76V12.907c0-.649-.525-1.174-1.173-1.174h-31.68c-.648 0-1.174.525-1.174 1.174v31.68c0 .648.526 1.173 1.174 1.173h11.829a1.173 1.173 0 100-2.347H14.08V14.08h29.333v14.08H33.17a5.014 5.014 0 00-5.008 5.008v22.837a5.014 5.014 0 005.008 5.008H38a1.173 1.173 0 100-2.346h-4.83a2.664 2.664 0 01-2.661-2.662V33.168a2.664 2.664 0 012.66-2.661h22.838a2.664 2.664 0 012.661 2.661v7.899c-9.704 0-17.6 7.895-17.6 17.6 0 9.705 7.896 17.6 17.6 17.6 9.705 0 17.6-7.895 17.6-17.6 0-8.908-6.656-16.272-15.253-17.425zM58.668 73.92c-8.411 0-15.254-6.843-15.254-15.253s6.843-15.254 15.254-15.254c8.41 0 15.253 6.843 15.253 15.254 0 8.41-6.842 15.253-15.253 15.253z" fill="#000"/></svg>
